X: 14568
T: Gan Ainm
R: waltz
M: 3/4
K: Dmajor
A2|d3 e f2|g2 f2 e2|d2 B2 G2|A4 A2|d3 e f2|g2 f2 e2|A6-|A4 B2|
d3 e f2|g2 f2 e2|d2 B2 F2|A6|d3 c B2|1 A4G2|E6-|E4:|
[2 A4 F2|B6-|B4 F2|B4 AB|d4 fe|B4 AG|D4 E2|F4 ED|B,4 A,2|B,6||

